resources/haticons/SVG/text_format.svg

<!-- Generated by IcoMoon.io -->
<svg version="1.1" xmlns="http://www.w3.org/2000/svg" width="24" height="24" viewBox="0 0 24 24">
<title>text_format</title>
<path d="M12 6l-1.875 5.016h3.75zM9.516 12.797l-0.938 2.203h-2.063l4.734-11.016h1.5l4.734 11.016h-2.063l-0.938-2.203h-4.969zM5.016 17.016h13.969v1.969h-13.969v-1.969z"></path>
</svg>

<svg xmlns="http://www.w3.org/2000/svg" width="24" height="24"><path d="M12 6l-1.875 5.016h3.75zm-2.484 6.797L8.578 15H6.515l4.734-11.016h1.5L17.483 15H15.42l-.938-2.203H9.513zm-4.5 4.219h13.969v1.969H5.016v-1.969z"/></svg>
